src/assets/outline/Messages3.svg

<svg width="24" height="24" viewBox="0 0 24 24"  xmlns="http://www.w3.org/2000/svg">
<path d="M16.9 19.0098C16.59 19.0098 16.28 18.9197 16.01 18.7397L15.05 18.1097C14.78 17.9297 14.65 17.5898 14.74 17.2798C14.81 17.0498 14.84 16.7797 14.84 16.4797V12.4097C14.84 10.7797 13.82 9.75977 12.19 9.75977H5.39999C5.27999 9.75977 5.17 9.76978 5.06 9.77979C4.85 9.78979 4.65001 9.71977 4.49001 9.57977C4.33001 9.43977 4.25 9.23979 4.25 9.02979V6.25977C4.25 3.31977 6.31 1.25977 9.25 1.25977H17.75C20.69 1.25977 22.75 3.31977 22.75 6.25977V11.3597C22.75 12.8097 22.26 14.0897 21.36 14.9697C20.64 15.6997 19.64 16.1698 18.5 16.3098V17.4197C18.5 18.0197 18.17 18.5598 17.65 18.8398C17.41 18.9498 17.15 19.0098 16.9 19.0098ZM16.3 17.1298L16.95 17.4998C17.01 17.4698 17.01 17.4197 17.01 17.4097V15.5997C17.01 15.1897 17.35 14.8497 17.76 14.8497C18.81 14.8497 19.7 14.5198 20.31 13.8998C20.94 13.2798 21.26 12.3997 21.26 11.3497V6.24976C21.26 4.11976 19.89 2.74976 17.76 2.74976H9.25999C7.12999 2.74976 5.75999 4.11976 5.75999 6.24976V8.24976H12.2C14.64 8.24976 16.35 9.95978 16.35 12.3998V16.4697C16.34 16.6997 16.33 16.9198 16.3 17.1298Z" />
<path d="M6.07001 22.75C5.85001 22.75 5.62 22.7 5.41 22.59C4.94 22.34 4.64999 21.86 4.64999 21.32V20.56C3.76999 20.42 2.99 20.05 2.41 19.47C1.65 18.71 1.25 17.67 1.25 16.47V12.4C1.25 10.14 2.72999 8.48002 4.92999 8.27002C5.08999 8.26002 5.23999 8.25 5.39999 8.25H12.19C14.63 8.25 16.34 9.96002 16.34 12.4V16.47C16.34 16.91 16.29 17.32 16.18 17.69C15.73 19.49 14.2 20.62 12.19 20.62H9.7L6.87 22.5C6.63 22.67 6.35001 22.75 6.07001 22.75ZM5.39999 9.75C5.27999 9.75 5.17 9.76002 5.06 9.77002C3.62 9.90002 2.75 10.89 2.75 12.4V16.47C2.75 17.27 3 17.94 3.47 18.41C3.93 18.87 4.59999 19.12 5.39999 19.12C5.80999 19.12 6.14999 19.46 6.14999 19.87V21.18L9.05 19.25C9.17 19.17 9.32 19.12 9.47 19.12H12.19C13.51 19.12 14.44 18.46 14.73 17.3C14.8 17.05 14.84 16.77 14.84 16.47V12.4C14.84 10.77 13.82 9.75 12.19 9.75H5.39999Z" />
</svg>

<?xml version="1.0" encoding="UTF-8"?>
<svg width="24" height="24" viewBox="0 0 24 24" xmlns="http://www.w3.org/2000/svg">
 <path d="m16.9 19.01c-0.31 0-0.62-0.0901-0.89-0.2701l-0.96-0.63c-0.27-0.18-0.4-0.5199-0.31-0.8299 0.07-0.23 0.1-0.5001 0.1-0.8001v-4.07c0-1.63-1.02-2.6499-2.65-2.6499h-6.79c-0.12 0-0.22999 0.01001-0.33999 0.02002-0.21 0.01-0.40999-0.06002-0.56999-0.20002s-0.24001-0.33998-0.24001-0.54998v-2.77c0-2.94 2.06-5 5-5h8.5c2.94 0 5 2.06 5 5v5.0999c0 1.45-0.49 2.73-1.39 3.61-0.72 0.73-1.72 1.2001-2.86 1.3401v1.1099c0 0.6-0.33 1.1401-0.85 1.4201-0.24 0.11-0.5 0.17-0.75 0.17zm-0.6-1.88 0.65 0.37c0.06-0.03 0.06-0.0801 0.06-0.0901v-1.81c0-0.41 0.34-0.75 0.75-0.75 1.05 0 1.94-0.3299 2.55-0.9499 0.63-0.62 0.95-1.5001 0.95-2.5501v-5.0999c0-2.13-1.37-3.5-3.5-3.5h-8.5c-2.13 0-3.5 1.37-3.5 3.5v2h6.44c2.44 0 4.15 1.71 4.15 4.15v4.0699c-0.01 0.23-0.02 0.4501-0.05 0.6601z"/>
 <path d="m6.07 22.75c-0.22 0-0.45001-0.05-0.66001-0.16-0.47-0.25-0.76001-0.73-0.76001-1.27v-0.76c-0.88-0.14-1.66-0.51-2.24-1.09-0.76-0.76-1.16-1.8-1.16-3v-4.07c0-2.26 1.48-3.92 3.68-4.13 0.16-0.01 0.31-0.02002 0.47-0.02002h6.79c2.44 0 4.15 1.71 4.15 4.15v4.07c0 0.44-0.05 0.85-0.16 1.22-0.45 1.8-1.98 2.93-3.99 2.93h-2.49l-2.83 1.88c-0.24 0.17-0.51999 0.25-0.79999 0.25zm-0.67002-13c-0.12 0-0.22999 0.01002-0.33999 0.02002-1.44 0.13-2.31 1.12-2.31 2.63v4.07c0 0.8 0.25 1.47 0.72 1.94 0.46 0.46 1.13 0.71 1.93 0.71 0.41 0 0.75 0.34 0.75 0.75v1.31l2.9-1.93c0.12-0.08 0.27-0.13 0.42-0.13h2.72c1.32 0 2.25-0.66 2.54-1.82 0.07-0.25 0.11-0.53 0.11-0.83v-4.07c0-1.63-1.02-2.65-2.65-2.65h-6.79z"/>
</svg>
